!!!!SEGMENT: pl-wtm--r-1423--001-003_stefani-jozef--les-amours-du-village-no-3.krn
!!!cenid: 18xx:2433
!!!COM: Stefani, Józef
!!!COM-rismID: pe30024097
!!!CDT: 1800/04/16-1876/03/19
!!!CNT: Polish
!!!GTL: Les Amours du Village
!!!OTL: No. 3
!!!OMV: 003
!!!PDT:
!!!AGN: Secular
!!!SMS-siglum: PL-Wtm
!!!SMS-shelfmark: R 1423
!!!SMS-shelfwork: 001-003 G
!!!SMS-variant:
!!!SMS-altvar:
!!!NIFC-rismSourceID: 1001116122
!!!NIFC-rismChildID: 1001116122
!!!NIFC-islandoraID: pl-wtm:25544
!!!URL-pdf-islandora: https://repozytorium.nifc.pl/islandora/object/pl-wtm%3A25544/datastream/PDF/view
!!!URL-scan: https://polish.musicsources.pl/pl/lokalizacje/galeria/rekopisy/6245 @EN{Scan on Polish Music Sources Website} @PL{Skany w portalu Dziedzictwo Muzyki Polskiej w otwartym dostępie}
!!!IIIF:
!!!ONB-nifc: UWAGA: części: 1. No. 1 (Allegretto), 2. No. 2 (Moderato), 3. No. 3 (Allegretto),
!!!OMD: Nº 3.
!!!AIN: 2 empty
!!!key:
**kern	**kern	**dynam
*part2	*part1	*part1
*staff2	*staff1	*
*Iempty	*Iempty	*
*I"Allegretto	*I"Allegretto	*
*>[A,B,B,C,C,D,D1,D,D2,E,F,F,G]	*>[A,B,B,C,C,D,D1,D,D2,E,F,F,G]	*>[A,B,B,C,C,D,D1,D,D2,E,F,F,G]
*>A	*>A	*>A
*clefG2	*clefG2	*
*k[f#]	*k[f#]	*
*G:	*G:	*
*M6/8	*M6/8	*
!	!	!LO:DY:rj
8g/L	8b'\L	mf
8a/J	8cc'\J	.
=1	=1	=1
!	!LO:TX:b:i:t=/&colon; Łucya wchodzi na Scene &colon;/	!
8.b\L	8.dd\L	.
16cc\K	16ee\K	.
8b\J	8dd\J	.
4dd\	4gg\	.
8gg\	8bb\	.
=2	=2	=2
(8qff#/	(8qaa/	.
4ee\)	4gg\)	.
8cc\	8ee\	.
(8qff#/	(8qaa/	.
4ee\)	4gg\)	.
8cc\	8ee\	.
=3	=3	=3
8.f#/L	8.a/L	.
16g/K	16b/K	.
8f#/J	8a/J	.
4a/	4cc\	.
8cc\	8ee\	.
!!LO:LB:g=original
=4	=4	=4
(8qcc/	(8qee/	.
4b\)	4dd\)	.
8a\	8cc\	.
8g/	8b\	.
!	!	!LO:DY:rj
8g'/L	8b'\L	f
8a'/J	8cc'\J	.
=5	=5	=5
8.b\L	8.dd\L	.
16cc\K	16ee\K	.
8b\J	8dd\J	.
4dd\	4gg\	.
8gg\	8bb\	.
=6	=6	=6
(8qff#/	(8qaa/	.
4ee\)	4gg\)	.
8cc\	8ee\	.
(8qff#/	(8qaa/	.
4ee\)	4gg\)	.
8cc\	8ee\	.
=7	=7	=7
8.f#/L	8.a/L	.
16g/K	16b/K	.
8f#/J	8a/J	.
4a/	4cc/	.
8c/	8f#/	.
!!LO:LB:g=original
=8	=8	=8
8qa/	(8qcc/	.
4g/	4b/)	.
8f#/	8a/	.
4g/	4g/	.
=!|:	=!|:	=!|:
*>B	*>B	*>B
8r	8d/	.
=9	=9	=9
!	!	!LO:DY:rj
8d/L	16dd'\LL	p
.	16dd'\	.
8f# 8A/	16dd'\	.
.	16dd'\JJ	.
8f#J 8A/	16cc\LL	.
.	16a\JJ	.
8c/L	16g/LL	.
.	16f#/	.
8f# 8A/	16e/	.
.	16d/	.
8f#J 8A/	16e/	.
.	16f#/JJ	.
=10	=10	=10
!	!	!LO:DY:rj
8B/L	16g/LL	f
.	16f#/	.
8g 8G/	16g/	.
.	16b/	.
8gJ 8G/	16dd/	.
.	16gg/JJ	.
8G/L	4dd\	.
8g 8B/	.	.
8gJ 8B/	8b\	.
=11	=11	=11
*	*tremolo	*
8f#/L	16dd\LL	p
.	16dd\	.
8a 8c/	16dd\	.
.	16dd\JJ	.
*	*Xtremolo	*
8aJ 8c/	16cc\LL	.
.	16a\JJ	.
8d/L	16g/LL	.
.	16f#/	.
8a 8c/	16e/	.
.	16d/	.
8aJ 8c/	16e/	.
.	16f#/JJ	.
!!LO:LB:g=original
=12	=12	=12
8G/L	16g/LL	f
.	16f#/	.
8g 8B/	16g/	.
.	16a/	.
8gJ 8B/	16b/	.
.	16cc/JJ	.
8B/L	16dd\LL	.
.	16cc#X\	.
8g 8G/	16dd\	.
.	16ee\J	.
8gJ 8G/	8dd\J	.
=13	=13	=13
*	*tremolo	*
8d/L	16dd\LL	p
.	16dd\	.
8f# 8A/	16dd\	.
.	16dd\JJ	.
*	*Xtremolo	*
8f#J 8A/	16cc\LL	.
.	16a\JJ	.
8c/L	16g/LL	.
.	16f#/	.
8f# 8A/	16e/	.
.	16d/	.
8f#J 8A/	16e/	.
.	16f#/JJ	.
=14	=14	=14
!	!	!LO:DY:rj
8B/L	16g\LL	f
.	16f#\	.
8g 8B/	16g\	.
.	16b\	.
8gJ 8B/	16dd\	.
.	16gg\JJ	.
8G/L	4dd\	.
8g 8B/	.	.
8gJ 8B/	8b\	.
=15	=15	=15
*	*tremolo	*
!	!	!LO:DY:rj
8d/L	16dd\LL	p
.	16dd\	.
8f# 8A/	16dd\	.
.	16dd\JJ	.
*	*Xtremolo	*
8f#J 8A/	16cc\LL	.
.	16a\JJ	.
8c/L	16g/LL	.
.	16f#/	.
8f# 8A/	16e/	.
.	16d/	.
8f#J 8A/	16e/	.
.	16f#/JJ	.
!!LO:LB:g=original
=16	=16	=16
!	!	!LO:DY:rj
8G/L	16g/LL	f
.	16f#/	.
8g 8B/	16g/	.
.	16b/	.
8gJ 8B/	16dd/	.
.	16b/JJ	.
8f# 8A/	8a 8d/	.
!	!	!LO:DY:rj
8g/L	8b'\L	mf
8a/J	8cc'\J	.
=17	=17	=17
8.b\L	8.dd\L	.
16cc\K	16ee\K	.
8b\J	8dd\J	.
4dd\	4gg\	.
8gg\	8bb\	.
=18	=18	=18
(8qff#/	(8qaa/	.
4ee\)	4gg\)	.
8cc\	8ee\	.
*rep	*rep	*
(8qff#/	(8qaa/	.
4ee\)	4gg\)	.
8cc\	8ee\	.
*Xrep	*Xrep	*
=19	=19	=19
8.f#/L	8.a/L	.
16g/K	16b/K	.
8f#/J	8a/J	.
4a/	4cc\	.
8cc\	8ee\	.
!!LO:PB:g=original
=20	=20	=20
(8qcc/	(8qee/	.
4b/)	4dd\)	.
8a/	8cc\	.
8g/	8b\	.
8g'/L	8b'\L	.
8a'/J	8cc'\J	.
=21	=21	=21
8.b\L	8.dd\L	.
16cc\K	16ee\K	.
8b\J	8dd\J	.
4dd\	4gg\	.
8gg\	8bb\	.
=22	=22	=22
(8qff#/	(8qaa/	.
4ee\)	4gg\)	.
8cc\	8ee\	.
*rep	*rep	*
(8qff#/	(8qaa/	.
4ee\)	4gg\)	.
8cc\	8ee\	.
*Xrep	*Xrep	*
=23	=23	=23
8.f#/L	8.a/L	.
16g/K	16b/K	.
8f#/J	8a/J	.
4a/	4cc/	.
8c/	8f#/	.
!!LO:LB:g=original
=	=	=
8qa/	(8qcc/	.
4g/	4b/)	.
8c/	8f#/	.
4B/	4g/	.
=24:|!|:	=24:|!|:	=24:|!|:
*>C	*>C	*>C
*k[]	*k[]	*
8r	8g/	.
=25	=25	=25
!	!	!LO:DY:rj
8c/L	8g/L	p
8e 8G/	16a/L	.
.	16b/	.
8eJ 8G/	16cc/	.
.	16dd/JJ	.
*rep	*	*
8c/L	8ee\L	.
8e 8G/	8cc\	.
.	(8qff#X/	.
8eJ 8G/	8gg\J)	.
*Xrep	*	*
=26	=26	=26
*rep	*rep	*
8c/L	8g/L	.
8e 8G/	16a/L	.
.	16b/	.
8eJ 8G/	16cc/	.
.	16dd/JJ	.
8c/L	8ee\L	.
8e 8G/	8cc\	.
.	(8qff#X/	.
8eJ 8G/	8gg\J)	.
*Xrep	*Xrep	*
=27	=27	=27
8B/L	(16ee\LL	.
.	16ff\)	.
8f 8G/	16dd'\	.
.	16g'\J	.
8fJ 8G/	8gg'\J	.
*	*rep	*
8G/L	(16ee\LL	.
.	16ff\)	.
8f 8G/	16dd'\	.
.	16g'\J	.
8fJ 8G/	8gg'\J	.
*	*Xrep	*
!!LO:LB:g=original
=28	=28	=28
.	(8qdd/	.
8c/L	16cc\LL)	.
.	16b\	.
8e 8G/	16cc\	.
.	16ee\	.
8eJ 8G/	16gg\	.
.	16ee\JJ	.
4d 4B/	4dd\	.
8r	8g/	.
=29	=29	=29
8c/L	8g/L	.
8e 8G/	16a/L	.
.	16b/	.
8eJ 8G/	16cc/	.
.	16dd/JJ	.
*rep	*	*
8c/L	8ee\L	.
8e 8G/	8cc\	.
.	(8qff#X/	.
8eJ 8G/	8gg\J)	.
*Xrep	*	*
=30	=30	=30
*rep	*rep	*
8c/L	8g/L	.
8e 8G/	16a/L	.
.	16b/	.
8eJ 8G/	16cc/	.
.	16dd/JJ	.
8c/L	8ee\L	.
8e 8G/	8cc\	.
.	(8qff#X/	.
8eJ 8G/	8gg\J)	.
*Xrep	*Xrep	*
=31	=31	=31
*tremolo	*	*
!	!	!LO:DY:rj
8dL 8B/	16dd\LL	f
.	16ddd\	.
8d 8B/	16ccc\	.
.	16bb\	.
8dJ 8B/	16aa\	.
.	16gg\JJ	.
8dL 8c/	16ff#X\LL	.
.	16ee\	.
8d 8c/	16dd\	.
.	16cc\	.
8dJ 8c/	16b\	.
.	16a\JJ	.
!!LO:LB:g=original
=	=	=
8dL 8B/	16g\LL	.
.	16b\	.
8d 8B/	16dd\	.
.	16gg\	.
8dJ 8B/	16b\	.
.	16dd\JJ	.
*Xtremolo	*	*
4d 4B/	4g/	.
=32:|!|:	=32:|!|:	=32:|!|:
*>D	*>D	*>D
8r	8g/	.
=33	=33	=33
(8qee/	(8qgg/	mf
8.dd\L)	8.ff\L)	.
16cc#X\K|	16ee\K|	.
8dd\J|	8ff\J|	.
8b'\L	8dd'\L	.
8ccn'\	8ee'\	.
8dd'\J	8ff'\J	.
=34	=34	=34
(8qff/	(8qaa/	.
8.ee\L)	8.gg\L)	.
16dd#X\K	16ff#X\K	.
8ee\J	8gg\J	.
8gg\L	8eee\L	.
8ff\|	8ddd\	.
8ee\J	8ccc\J	.
=35	=35	=35
(8qee/	(8qgg/	.
8.dd\L)	8.ff\L)	.
16cc#X\K	16ee\K	.
8dd\J	8ff\J	.
8b\L	8dd\L	.
8ccn\	8ee\	.
8dd\J	8ff\J	.
!!LO:LB:g=original
=36	=36	=36
(8qff/	(8qaa/	.
8.ee\L)	8.gg\L)	.
16dd#X\K	16ff#X\K	.
8ee\J	8gg\J	.
8gg\L	8eee\L	.
8ff\	8ddd\	.
8ee\J	8ccc\J	.
=37	=37	=37
!	!	!LO:DY:rj
8c/L	8g'/L	f
8e 8G/	16a'/L	.
.	16b'/	.
8eJ 8G/	16cc'/	.
.	16dd'/JJ	.
*rep	*	*
8c/L	8ee'\L	.
8e 8G/	8cc'\	.
.	(8qff#X/	.
8eJ 8G/	8gg\J)	.
*Xrep	*	*
=38	=38	=38
*tremolo	*	*
8fL 8A/	8a'\L	.
8f 8A/	16b'\L	.
.	16cc#X'\	.
8f 8A/	16dd'\	.
.	16ee'\JJ	.
8f 8A/	8ffn\L	.
8f 8A/	8dd\	.
.	(8qgg#X/	.
8fJ 8A/	8aa\J)	.
=39	=39	=39
8eL 8G/	16gg\LL	.
.	16eee\	.
8e 8G/	16ccc\	.
.	16aa\J	.
8eJ 8G/	8gg\J	.
8fL 8G/	16ff\LL	.
.	16ddd\	.
8f 8G/	16bb\	.
.	16gg\J	.
8fJ 8G/	8ff\J	.
!!LO:LB:g=original
=40	=40	=40
!!LO:TX:a:t=1ma
*>D1	*>D1	*>D1
8eL 8G/	16ee\LL	.
.	16ccc\	.
8e 8G/	16bb\	.
.	16aa\	.
8eJ 8G/	16gg\	.
.	16ee'\JJ	.
*Xtremolo	*	*
4e 4G/	4cc\	.
=:|!	=:|!	=:|!
!!LO:TX:a:t=2
*>D2	*>D2	*>D2
*tremolo	*	*
8eL 8G/	16ee\LL	.
.	16ccc\	.
8e 8G/	16bb\	.
.	16ccc\	.
8eJ 8G/	16gg\	.
.	16ee\JJ	.
*Xtremolo	*	*
8e 8G/	8cc\	.
=41||	=41||	=41||
*>E	*>E	*>E
*k[f#]	*k[f#]	*
8g'/L	8b'\L	.
8a'/J	8cc'\J	.
=42	=42	=42
8.b\L	8.dd\L	.
16cc\K	16ee\K	.
8b\J	8dd\J	.
4dd\	4gg\	.
8gg\	8bb\	.
=43	=43	=43
(8qff#/	(8qaa/	.
4ee\)	4gg\)	.
8cc\	8ee\	.
*rep	*rep	*
(8qff#/	(8qaa/	.
4ee\)	4gg\)	.
!LO:TX:a:t=V&colon; S&colon;	!	!
8cc\	8ee\	.
*Xrep	*Xrep	*
!!LO:PB:g=original
=44	=44	=44
8.f#/L	8.a/L	.
16g/K	16b/K	.
8f#/J	8a/J	.
4a/	4cc\	.
8cc\	8ee\	.
=45	=45	=45
(8qcc/	(8qee/	.
4b/)	4dd\)	.
8a/	8cc\	.
8g/	8b\	.
8g'/L	8b'\L	f
8a'/J	8cc'\J	.
=46	=46	=46
8.b\L	8.dd\L	.
16cc\K	16ee\K	.
8b\J	8dd\J	.
4dd\	4gg\	.
8gg\	8bb\	.
=47	=47	=47
(8qff#/	(8qaa/	.
4ee\)	4gg\)	.
8cc\	8ee\	.
(8qff#/	(8qaa/	.
4ee\)	4gg\)	.
8cc\	8ee\	.
!!LO:LB:g=original
=48	=48	=48
8.f#/L	8.a/L	.
16g/K	16b/K	.
8f#/J	8a/J	.
4a/	4cc/	.
8c/	8f#/	.
=49||	=49||	=49||
!!!OMD: Coda
*>F	*>F	*>F
!	!	!LO:DY:rj
8B/L	(16g/LL	fp
.	16d/)	.
8A#X/	16c#X'^/	.
.	16e'/J	.
8B/J	8d'/J	.
8.B/L	8.g/L	.
16d/K	16a/K	.
8g/J	8b/J	.
=50	=50	=50
*rep	*rep	*
8B/L	(16g/LL	.
.	16d/)	.
8A#X/	16c#X'^/	.
.	16e'/J	.
8B/J	8d'/J	.
8.B/L	8.g/L	.
16d/K	16a/K	.
8g/J	8b/J	.
*Xrep	*Xrep	*
=51	=51	=51
(16b/LL	(16dd/LL	.
16a/)	16cc/)	.
16d'/	16a'/	.
16d'/J	16a'/J	.
8d'/J	8a'/J	.
*rep	*rep	*
(16b/LL	(16dd/LL	.
16a/)	16cc/)	.
16d'/	16a'/	.
16d'/J	16a'/J	.
8d'/J	8a'/J	.
*Xrep	*Xrep	*
!!LO:LB:g=original
=52	=52	=52
8qa/	8qa/	.
16g/LL	16g/LL	.
16f#/	16f#/	.
16g/	16g/	.
16f#/	16a/	.
16g/	16b/	.
16a/JJ	16cc/JJ	.
16b/LL	16dd\LL	.
16cc/	16ee\	.
16b/	16dd\	.
16cc/J	16ee\J	.
8b/J	8dd\J	.
=53	=53	=53
8b/L	(16gg\LL	.
.	16dd\)	.
8a#X^/	16cc#X'^<\	.
.	16ee'\J	.
!	!	!LO:HP:t=cresc
8b/J	8dd'\J	<
8.b\L	8.gg\L	.
16dd\K	16aa\K	.
8gg\J	8bb\J	.
=54	=54	=54
*rep	*rep	*
8b/L	(16gg\LL	.
.	16dd\)	.
8a#X^/	16cc#X'^<\	.
.	16ee'\J	.
8b/J	8dd'\J	.
8.b\L	8.gg\L	.
16dd\K	16aa\K	.
8gg\J	8bb\J	.
*Xrep	*Xrep	*
=55	=55	=55
(16bb\LL	(16ddd\LL	.
16aa\)	16ccc\)	.
16dd'\	16aa'\	.
16dd'\J	16aa'\J	.
8dd'\J	8aa'\J	.
*rep	*rep	*
(16bb\LL	(16ddd\LL	.
16aa\)	16ccc\)	.
16dd'\	16aa'\	.
16dd'\J	16aa'\J	.
8dd'\J	8aa'\J	.
*Xrep	*Xrep	*
!!LO:LB:g=original
=56	=56	=56
16b/LL|	16gg\LL|	.
(16g/	(16gg\	.
16f#/	16ff#\	<
16g/	16gg\	.
16f#/	16ff#\	.
16g/JJ	16gg\JJ	.
*tremolo	*tremolo	*
16f#/LL	16ff#\LL	.
16g/	16gg\	.
16f#/	16ff#\	.
16g/	16gg\	.
16f#/	16ff#\	.
16g/JJ)	16gg\JJ)	[
*	*Xtremolo	*
=57	=57	=57
!	!	!LO:DY:rj
16eeLL 16g\	16ggLL 16cc 16e\	ff
16ee 16g\	16gg\	.
16ee 16g\	16gg\	.
16ee 16g\	16gg\	.
16ee 16g\	16gg\	.
16eeJJ 16g\	16gg\JJ	.
*	*tremolo	*
16eeLL 16g\	16gg\LL	.
16ee 16g\	16gg\	.
16dd 16g\	16ff#\	.
16dd 16g\	16ff#\	.
16cc 16g\	16ee\	.
16ccJJ 16g\	16ee\JJ	.
=58	=58	=58
!	!LO:TX:a:t=....	!
16bLL 16g/	16dd'\LL	.
16b 16g/	16dd'\	.
16b 16g/	16dd'\	.
16bJJ 16g/	16dd'\JJ	.
8b 8g#X/	(16ee^<\LL	.
.	16dd\JJ)	.
!	!LO:TX:a:t=....	!
16a/LL	16cc'\LL	.
16a/	16cc'\	.
16a/	16cc'\	.
16a/JJ	16cc'\JJ	.
8a 8f#/	(16dd^<\LL	.
.	16cc\JJ)	.
=59	=59	=59
16bLL 16g/	16b\LL	.
16b 16g/	16b\	.
16b 16g/	16b\	.
16bJJ 16g/	16b\JJ	.
*Xtremolo	*	*
8a 8c/	(16dd^<\LL	.
.	16cc\JJ)	.
16d/LL	16b\LL	.
16g/	16b\	.
16g/	16b\	.
16g/JJ	16b\JJ	.
*	*Xtremolo	*
16f#/LL	16a/LL	.
16f#/JJ	16a/JJ	.
!!LO:LB:g=original
=60	=60	=60
16g/LL|	16g'\LL	.
(16g/	(16gg\	.
16f#/	16ff#\	<
16g/	16gg\	.
16f#/	16ff#\	.
16g/JJ	16gg\JJ	.
*tremolo	*tremolo	*
16f#/LL	16ff#\LL	.
16g/	16gg\	.
16f#/	16ff#\	.
16g/	16gg\	.
16f#/	16ff#\	.
16g/JJ)	16gg\JJ)	[
*	*Xtremolo	*
=61	=61	=61
16eeLL 16g\	16ggLL 16cc 16e\	.
16ee 16g\	16gg\	.
16ee 16g\	16gg\	.
16ee 16g\	16gg\	.
16ee 16g\	16gg\	.
16eeJJ 16g\	16gg\JJ	.
*	*tremolo	*
16eeLL 16g\	16gg\LL	.
16ee 16g\	16gg\	.
16dd 16g\	16ff#\	.
16dd 16g\	16ff#\	.
16cc 16g\	16ee\	.
16ccJJ 16g\	16ee\JJ	.
=62	=62	=62
16bLL 16g/	16dd\LL	.
16b 16g/	16dd\	.
16b 16g/	16dd\	.
16bJJ 16g/	16dd\JJ	.
8b 8g#X/	(16ee\LL	.
.	16dd\JJ)	.
16a/LL	16cc\LL	.
16a/	16cc\	.
16a/	16cc\	.
16a/JJ	16cc\JJ	.
8a 8f#/	(16dd\LL	.
.	16cc\JJ)	.
=63	=63	=63
16g/LL	16b\LL	.
16g/	16b\	.
16g/	16b\	.
16g/JJ	16b\JJ	.
*	*Xtremolo	*
8a 8c/	(16dd\LL	.
.	16cc\JJ)	.
16g/LL	16b\LL	.
16g/	16bb 16dd\	.
16g/	16bb 16dd\	.
16g/JJ	16bbJJ 16dd\	.
*Xtremolo	*	*
16f#/LL	16aaLL 16cc\	.
16f#/JJ	16aaJJ 16cc\	.
!!LO:LB:g=original
=64	=64	=64
*tremolo	*tremolo	*
16b-XLL 16e-X/	16ggLL 16b-X\	.
16b- 16e-/	16gg 16b-\	.
16b- 16e-/	16gg 16b-\	.
16b-JJ 16e-/	16ggJJ 16b-\	.
*Xtremolo	*Xtremolo	*
16bnLL 16e-/	16ggLL 16bn\	.
16bJJ 16e-/	16ggJJ 16b\	.
*tremolo	*tremolo	*
16ccLL 16e-/	16ggLL 16cc\	.
16cc 16e-/	16gg 16cc\	.
16cc 16e-/	16gg 16cc\	.
16ccJJ 16e-/	16ggJJ 16cc\	.
*Xtremolo	*Xtremolo	*
16cc#XLL 16e-/	16ggLL 16b-X\	.
16cc#JJ 16e-/	16ggJJ 16b-\	.
=65	=65	=65
*tremolo	*tremolo	*
16bnLL 16d/	16ggLL 16bn\	.
16b 16d/	16gg 16b\	.
16b 16d/	16gg 16b\	.
16b 16d/	16gg 16b\	.
16b 16d/	16gg 16b\	.
16bJJ 16d/	16ggJJ 16b\	.
16ccLL 16d/	16ff#LL 16a\	.
16cc 16d/	16ff# 16a\	.
16cc 16d/	16ff# 16a\	.
16cc 16d/	16ff# 16a\	.
16cc 16d/	16ff# 16a\	.
16ccJJ 16d/	16ff#JJ 16a\	.
*Xtremolo	*Xtremolo	*
=66:|!	=66:|!	=66:|!
*>G	*>G	*>G
4b 4d/	16gg\LL	.
.	16ff#\	.
.	16gg\	.
.	16bb\J	.
8r	8ddd\J	.
4ff# 4a 4d\	16ff#\LL	.
.	16ee#X\	.
.	16ff#\	.
.	16aa\J	.
8r	8ddd\J	.
=67	=67	=67
*rep	*rep	*
4b 4d/	16gg\LL	.
.	16ff#\	.
.	16gg\	.
.	16bb\J	.
8r	8ddd\J	.
4ff# 4a 4d\	16ff#\LL	.
.	16ee#X\	.
.	16ff#\	.
.	16aa\J	.
8r	8ddd\J	.
*Xrep	*Xrep	*
!!LO:PB:g=original
=68	=68	=68
*tremolo	*tremolo	*
16bLL 16d/	8gg\L	.
16b 16d/	.	.
16b 16d/	16ggg\L	.
16b 16d/	16ggg\	.
16b 16d/	16ddd\	.
16b 16d/	16ddd\JJ	.
16b 16d/	16bb\LL	.
16b 16d/	16bb\	.
16b 16d/	16ddd\	.
16b 16d/	16ddd\	.
16b 16d/	16bb\	.
16bJJ 16d/	16bb\JJ	.
=69	=69	=69
*rep	*	*
16bLL 16d/	16gg\LL	.
16b 16d/	16gg\	.
16b 16d/	16ggg\	.
16b 16d/	16ggg\	.
16b 16d/	16ddd\	.
16b 16d/	16ddd\JJ	.
16b 16d/	16bb\LL	.
16b 16d/	16bb\	.
16b 16d/	16ddd\	.
16b 16d/	16ddd\	.
16b 16d/	16bb\	.
16bJJ 16d/	16bb\JJ	.
*Xrep	*	*
=70	=70	=70
4b 4d/	4gg\	.
8r	8r	.
4gg 4b 4d\	4bb 4dd 4g\	.
16r	16r	.
16d 16G/	16g 16B/	.
==	==	==
*-	*-	*-
!!!system-decoration: {(s1,s2)}
!!!RDF**kern: > = above
!!!RDF**kern: < = below
!!!RDF**kern: | = vertical stroke
!!!ENC: Marta Lawrence
!!!END: 2021-06-24
!!!ENC: Marcin Jachim
!!!END: 2021-06-18
!!!YEC: Copyright 2022 Narodowy Instytut Fryderyka Chopina (https://polishscores.org)
!!!YEM: License CC-BY-4.0 (https://creativecommons.org/licenses/by/4.0)
